X:370
T:J'ai un oiseau qui vole
R:Branle simple
C:Jacques Mangeant (1615)
S:Jacques Mangeant 1615
O:France
M:4/4
L:1/8
Q:1/4=160
K:Eb
G2GG|G3GA2G2|F2=E2FFFD|E2C2G2GG|
G3GA2G2|F2=E2FAGG|F4:||
W:
W:J'ai un oiseau qui vole, vole,
W:Vole, vole, vole
W:J'ai un oiseau qui vole, vole,
W:Vole, volera.
W:
W:Il volera dedans ma gorge
W:Vole, vole, vole
W:Il volera dedans ma gorge
W:Vole, volera.
W:
W: Il a volé dedans ma gorge, vole....
W:
W:Il volera dedans ta gorge, vole...
W:
W: Il a volé dedans ta gorge, vole ...

